src/24/actions/object-rows.svg

<svg xmlns="http://www.w3.org/2000/svg" viewBox="0 0 24 24"><path d="M4 3v5h16V3H4zm1 1h14v3H5V4zM4 9v5h16V9H4zm1 1h14v3H5v-3zm-1 5v5h16v-5H4zm1 1h14v3H5v-3z" fill="currentColor" color="#5d656b"/></svg>

<svg xmlns="http://www.w3.org/2000/svg" viewBox="0 0 24 24">
  <defs id="defs3051">
    <style type="text/css" id="current-color-scheme">
      .ColorScheme-Text {
        color:#5d656b;
      }
      </style>
  </defs>
 <path style="fill:currentColor;fill-opacity:1;stroke:none" 
     d="M 4 3 L 4 8 L 20 8 L 20 3 L 4 3 z M 5 4 L 19 4 L 19 7 L 5 7 L 5 4 z M 4 9 L 4 14 L 20 14 L 20 9 L 4 9 z M 5 10 L 19 10 L 19 13 L 5 13 L 5 10 z M 4 15 L 4 20 L 20 20 L 20 15 L 4 15 z M 5 16 L 19 16 L 19 19 L 5 19 L 5 16 z "
     class="ColorScheme-Text"
     />
</svg>
